images/ico_help_step2.svg

<svg width="113" height="113" viewBox="0 0 113 113" fill="none" xmlns="http://www.w3.org/2000/svg">
<path fill-rule="evenodd" clip-rule="evenodd" d="M56.5 113C87.7041 113 113 87.7041 113 56.5C113 25.2959 87.7041 0 56.5 0C25.2959 0 0 25.2959 0 56.5C0 87.7041 25.2959 113 56.5 113ZM56.5 109C85.7711 109 109.5 85.4949 109.5 56.5C109.5 27.5051 85.7711 4 56.5 4C27.2289 4 3.5 27.5051 3.5 56.5C3.5 85.4949 27.2289 109 56.5 109Z" fill="url(#paint0_linear)"/>
<path d="M51.8986 56.4621H52.6706C57.6844 56.4621 61.7632 52.3826 61.7632 47.3688V41.0926C61.7632 36.0788 57.6844 32 52.6706 32H51.8986C46.8841 32 42.8046 36.0788 42.8046 41.0926V47.3681C42.8039 52.3826 46.8835 56.4621 51.8986 56.4621ZM45.5437 41.0926C45.5437 37.5898 48.3944 34.7398 51.8979 34.7398H52.6699C56.1727 34.7398 59.0227 37.5898 59.0227 41.0926V47.3681C59.0227 50.8716 56.1727 53.7217 52.6699 53.7217H51.8979C48.3944 53.7217 45.5437 50.8716 45.5437 47.3681V41.0926ZM71.1031 65.7685C69.6702 64.7705 62.068 59.8047 52.5589 59.7081C52.5178 59.7046 52.476 59.7026 52.4336 59.7026C52.2692 59.7026 52.2164 59.7033 52.1589 59.7081C42.6471 59.8047 35.0469 64.7705 33.6161 65.7678C33.1702 66.0787 32.7024 66.4534 32.3119 67.3158C32.0195 67.9665 31.9969 68.8836 32.0003 69.2336V76.2851C32.0003 77.0413 32.614 77.655 33.3702 77.655H71.3483C72.1045 77.655 72.7182 77.0413 72.7182 76.2851V69.2473C72.7223 68.8829 72.699 67.9644 72.4045 67.3151C72.0189 66.4575 71.5511 66.0815 71.1031 65.7685ZM34.7399 74.9152L34.7401 69.2192C34.7373 68.9672 34.7723 68.5548 34.8099 68.4425C34.9202 68.1987 34.9551 68.174 35.1825 68.0158C35.9928 67.4514 43.3512 62.4999 52.2918 62.4472C52.3808 62.4465 52.4034 62.4472 52.426 62.4472C61.3646 62.4999 68.727 67.4514 69.5353 68.0144C69.764 68.174 69.799 68.1993 69.9003 68.4233C69.9435 68.5445 69.9812 68.9329 69.9791 69.2336L69.9792 74.9152H34.7399ZM90.2203 47.0688H82.001V38.8494C82.001 38.0933 81.3873 37.4796 80.6311 37.4796C79.8749 37.4796 79.2612 38.0933 79.2612 38.8494V47.0688H71.0419C70.2857 47.0688 69.672 47.6825 69.672 48.4387C69.672 49.1949 70.2857 49.8086 71.0419 49.8086H79.2612V58.0279C79.2612 58.7841 79.8749 59.3978 80.6311 59.3978C81.3873 59.3978 82.001 58.7841 82.001 58.0279V49.8086H90.2203C90.9765 49.8086 91.5902 49.1949 91.5902 48.4387C91.5902 47.6825 90.9765 47.0688 90.2203 47.0688Z" fill="url(#paint1_linear)" stroke="url(#paint2_linear)" stroke-width="1.4"/>
<defs>
<linearGradient id="paint0_linear" x1="56.5" y1="0" x2="35.64" y2="118.375" gradientUnits="userSpaceOnUse">
<stop stop-color="#50CFFA"/>
<stop offset="0.999201" stop-color="#52A2ED"/>
</linearGradient>
<linearGradient id="paint1_linear" x1="61.7951" y1="32" x2="55.2567" y2="80.4292" gradientUnits="userSpaceOnUse">
<stop stop-color="#50CFFA"/>
<stop offset="0.999201" stop-color="#52A2ED"/>
</linearGradient>
<linearGradient id="paint2_linear" x1="61.7951" y1="32" x2="61.7951" y2="77.655" gradientUnits="userSpaceOnUse">
<stop stop-color="#50CFFA"/>
<stop offset="1" stop-color="#51A5EE"/>
</linearGradient>
</defs>
</svg>

<svg width="113" height="113" fill="none" xmlns="http://www.w3.org/2000/svg"><path fill-rule="evenodd" clip-rule="evenodd" d="M56.5 113c31.204 0 56.5-25.296 56.5-56.5S87.704 0 56.5 0 0 25.296 0 56.5 25.296 113 56.5 113zm0-4c29.271 0 53-23.505 53-52.5S85.771 4 56.5 4s-53 23.505-53 52.5 23.729 52.5 53 52.5z" fill="url(#paint0_linear)"/><path d="M51.899 56.462h.772c5.013 0 9.092-4.08 9.092-9.093v-6.276c0-5.014-4.079-9.093-9.092-9.093h-.772c-5.015 0-9.094 4.079-9.094 9.093v6.275c-.001 5.015 4.078 9.094 9.094 9.094zm-6.355-15.37a6.36 6.36 0 016.354-6.352h.772a6.36 6.36 0 016.353 6.353v6.275a6.36 6.36 0 01-6.353 6.354h-.772a6.361 6.361 0 01-6.354-6.354v-6.275zm25.56 24.677c-1.434-.999-9.036-5.964-18.545-6.06a3.32 3.32 0 00-.4 0c-9.512.096-17.112 5.061-18.543 6.059-.446.31-.914.685-1.304 1.548-.292.65-.315 1.568-.312 1.918v7.051c0 .756.614 1.37 1.37 1.37h37.978a1.37 1.37 0 001.37-1.37v-7.038c.004-.364-.019-1.283-.314-1.932-.385-.858-.853-1.233-1.3-1.546zM34.74 74.915V69.22c-.003-.252.032-.664.07-.776.11-.244.145-.269.372-.427.81-.565 8.17-5.516 17.11-5.569h.134c8.939.053 16.301 5.004 17.11 5.567.228.16.263.185.364.41.043.12.081.509.08.81v5.681H34.74zM90.22 47.07h-8.219v-8.22a1.37 1.37 0 00-2.74 0v8.22h-8.22a1.37 1.37 0 000 2.74h8.22v8.219a1.37 1.37 0 002.74 0v-8.22h8.22a1.37 1.37 0 000-2.74z" fill="url(#paint1_linear)" stroke="url(#paint2_linear)" stroke-width="1.4"/><defs><linearGradient id="paint0_linear" x1="56.5" y1="0" x2="35.64" y2="118.375" gradientUnits="userSpaceOnUse"><stop stop-color="#50CFFA"/><stop offset=".999" stop-color="#52A2ED"/></linearGradient><linearGradient id="paint1_linear" x1="61.795" y1="32" x2="55.257" y2="80.429" gradientUnits="userSpaceOnUse"><stop stop-color="#50CFFA"/><stop offset=".999" stop-color="#52A2ED"/></linearGradient><linearGradient id="paint2_linear" x1="61.795" y1="32" x2="61.795" y2="77.655" gradientUnits="userSpaceOnUse"><stop stop-color="#50CFFA"/><stop offset="1" stop-color="#51A5EE"/></linearGradient></defs></svg>
